svg/UnitedNationsOCHA-Humanitarian/product_type_film_icon_box.svg

<svg xmlns="http://www.w3.org/2000/svg" viewBox="0 0 32 32" enable-background="new 0 0 32 32"><path fill="#407cca" d="m13.361 19.37c-.026.093-.111.15-.202.15-.02 0-.039-.002-.059-.008l-.974-.289h-1.945c-.116 0-.209-.094-.209-.21 0-.115.094-.209.209-.209h1.977c.021 0 .041.002.06.008l1 .297c.111.034.175.151.142.261m-1.203-1.789h-1.977c-.116 0-.209.094-.209.21 0 .115.094.209.209.209h1.927l.958.479c.03.016.063.022.094.022.077 0 .152-.043.188-.116.052-.103.011-.229-.094-.281l-1-.501c-.029-.015-.063-.022-.095-.022m1 2.539h-2.978c-.116 0-.209.094-.209.21 0 .115.094.209.209.209h2.978c.116 0 .209-.094.209-.209.0001-.116-.093-.21-.209-.21m-.043.972l-.958.21h-1.977c-.116 0-.209.094-.209.209 0 .116.094.21.209.21l2.02-.005 1-.214c.114-.023.186-.135.161-.249-.023-.112-.137-.198-.248-.161m18.884-14.692v19.2c0 3.521-2.88 6.4-6.4 6.4h-19.2c-3.52 0-6.4-2.88-6.4-6.4v-19.2c0-3.52 2.88-6.4 6.4-6.4h19.2c3.52 0 6.4 2.88 6.4 6.4m-22.6 9.92l-.395-.456-5.01-.306v9.932l5-.508.395-.505v-8.157m4.856.758h-1.028l-1.07-.758h-2.277v8.156h2.276l1.07-.862h1.028v-6.536m13.743-4.729c.03-1.377-.309-2.035-.309-2.035h-2.721l-2.531 1.038h-2.557v-3.657h-3.28v-.228c-.226-.928-1.493-.957-1.653-.957l-9.597.187c-.052 0-1.234.016-1.298 1.488v.459c.064 1.461 1.244 1.48 1.297 1.48l9.598.188h.009c.146 0 1.417-.027 1.648-1.01v-.179h.987v2.228h-.223l-2.125 5.424h-.506v7.094.245.867h8.612l.861-1.112h2.375c0 0 .709-1.013.76-3.471.048-2.458-.76-3.623-.76-3.623h-7.138v-2.888h2.838l2.735.426h2.668c.0001 0 .281-.589.31-1.965m-14.943 9.839l-.953.544h-1.92c-.116 0-.209.094-.209.209 0 .116.094.21.209.21h1.977c.036 0 .072-.001.105-.027l1-.57c.1-.058.136-.186.078-.287-.059-.101-.188-.137-.288-.079"/></svg>

<?xml version="1.0" encoding="utf-8"?>
<!-- Generator: Adobe Illustrator 16.0.3, SVG Export Plug-In . SVG Version: 6.00 Build 0)  -->
<!DOCTYPE svg PUBLIC "-//W3C//DTD SVG 1.1//EN" "http://www.w3.org/Graphics/SVG/1.1/DTD/svg11.dtd">
<svg version="1.1" id="Layer_1" xmlns="http://www.w3.org/2000/svg" xmlns:xlink="http://www.w3.org/1999/xlink" x="0px" y="0px"
	 width="32px" height="32px" viewBox="0 0 32 32" enable-background="new 0 0 32 32" xml:space="preserve">
<path fill="#407CCA" d="M13.361,19.37c-0.026,0.093-0.111,0.15-0.202,0.15c-0.02,0-0.039-0.002-0.059-0.008l-0.974-0.289h-1.945
	c-0.116,0-0.209-0.094-0.209-0.21c0-0.115,0.094-0.209,0.209-0.209h1.977c0.021,0,0.041,0.002,0.06,0.008l1.001,0.297
	C13.33,19.143,13.394,19.26,13.361,19.37z M12.158,17.581h-1.977c-0.116,0-0.209,0.094-0.209,0.21c0,0.115,0.094,0.209,0.209,0.209
	h1.927l0.958,0.479c0.03,0.016,0.063,0.022,0.094,0.022c0.077,0,0.152-0.043,0.188-0.116c0.052-0.103,0.011-0.229-0.094-0.281
	l-1.001-0.501C12.224,17.588,12.19,17.581,12.158,17.581z M13.159,20.12h-2.978c-0.116,0-0.209,0.094-0.209,0.21
	c0,0.115,0.094,0.209,0.209,0.209h2.978c0.116,0,0.209-0.094,0.209-0.209C13.369,20.214,13.275,20.12,13.159,20.12z M13.116,21.092
	l-0.958,0.21h-1.977c-0.116,0-0.209,0.094-0.209,0.209c0,0.116,0.094,0.21,0.209,0.21l2.021-0.005l1.001-0.214
	c0.114-0.023,0.186-0.135,0.161-0.249C13.341,21.141,13.227,21.055,13.116,21.092z M32,6.4v19.2c0,3.521-2.88,6.4-6.4,6.4H6.4
	C2.88,32,0,29.12,0,25.6V6.4C0,2.88,2.88,0,6.4,0h19.2C29.12,0,32,2.88,32,6.4z M9.4,16.32l-0.395-0.456L4,15.558v9.932l5.005-0.508
	L9.4,24.477V16.32z M14.256,17.078h-1.028l-1.07-0.758H9.881v8.156h2.276l1.07-0.862h1.028V17.078z M27.998,12.349
	c0.03-1.377-0.309-2.035-0.309-2.035h-2.721l-2.531,1.038H19.88V7.695H16.6V7.467c-0.226-0.928-1.493-0.957-1.653-0.957
	c0,0,0,0-0.001,0L5.35,6.697c-0.052,0-1.234,0.016-1.298,1.488v0.459c0.064,1.461,1.244,1.48,1.297,1.48l9.598,0.188h0.009
	c0.146,0,1.417-0.027,1.648-1.009V9.124h0.987v2.228h-0.223l-2.125,5.424h-0.506v7.094v0.245v0.867h8.612l0.861-1.112h2.375
	c0,0,0.709-1.013,0.76-3.471c0.048-2.458-0.76-3.623-0.76-3.623h-7.138v-2.888h2.838l2.735,0.426h2.668
	C27.689,14.314,27.969,13.725,27.998,12.349z M13.055,22.188l-0.953,0.544h-1.92c-0.116,0-0.209,0.094-0.209,0.209
	c0,0.116,0.094,0.21,0.209,0.21h1.977c0.036,0,0.072-0.01,0.105-0.027l1.001-0.57c0.1-0.058,0.136-0.186,0.078-0.287
	C13.284,22.166,13.155,22.13,13.055,22.188z"/>
</svg>
